COLOR/mimes 16/16/x-package-repository.svg

<svg height="16" width="16" xmlns="http://www.w3.org/2000/svg" xmlns:xlink="http://www.w3.org/1999/xlink"><linearGradient id="a" gradientUnits="userSpaceOnUse" x1="328" x2="328" y1="237" y2="251"><stop offset="0" stop-color="#fff"/><stop offset=".125" stop-color="#fff" stop-opacity=".098039"/><stop offset=".92500001" stop-color="#fff" stop-opacity=".098039"/><stop offset="1" stop-color="#fff" stop-opacity=".498039"/></linearGradient><clipPath id="b"><path d="m325.09646 237c-2.80769 0-3.10979.28839-3.09603 3.10176v3.89824 3.89824c-.0138 2.81337.28834 3.10176 3.09603 3.10176h5.8075c2.8077 0 3.09604-.28835 3.09604-3.10176v-3.89824-3.89824c0-2.8134-.28835-3.10176-3.09604-3.10176z"/></clipPath><linearGradient id="c" gradientTransform="matrix(0 -.00953618 .00953591 0 -.942985 4.473643)" gradientUnits="userSpaceOnUse" x1="459.03448" x2="35.310345" y1="419.23337" y2="207.36522"><stop offset="0" stop-color="#f2f2f2"/><stop offset="1" stop-color="#f9f9f9"/></linearGradient><g transform="scale(3.7797136)"><path d="m1.3483185.26457024c-.1902366 0-.3444309.003678-.48573256.0273883-.14130436.023732-.28264046.0730955-.39065659.18085764-.10801348.10775949-.15783472.24955066-.18137354.39116985-.02354675.14162177-.02677186.29644567-.02584851.48728557v.7652909 1.0314115c-.00079371.1900038.002381.3445631.0258485.4857352.0235468.1416192.0733574.2834104.18137354.3911699.10801613.1077621.24935223.1571389.39065659.1808576.14130167.023732.29549597.027388.48573257.027388h1.5367831c.1902367 0 .3440949-.00362.4852167-.027388.1411245-.0237584.2824765-.0735294.3901381-.1813736.1076616-.1078441.1571653-.249413.1808576-.3906539.0236949-.1412435.0273883-.2951308.0273883-.4857352v-1.0314115-.7668413c0-.1906044-.0037-.3444917-.027388-.48573517-.0236794-.14124086-.0731963-.28280979-.1808579-.39065394s-.2490136-.1576257-.3901381-.18137353c-.1411218-.0237505-.29498-.0273883-.4852167-.0273883z" opacity=".1"/><path d="m1.3485196.26457024c-.74283143 0-.82275813.0762994-.81911763.82063356v1.0313587 1.0313586c-.003651.7443342.0762862.8206336.81911763.8206336h1.5364921c.7428341 0 .8191203-.076289.8191203-.8206336v-1.0313586-1.0313587c0-.74434206-.076289-.82063356-.8191203-.82063356z" fill="none" opacity=".2" stroke="#000" stroke-width=".529141"/><path d="m1.3485196.26457024c-.74283143 0-.82275813.0762994-.81911763.82063356v1.0313587 1.0313586c-.003651.7443342.0762862.8206336.81911763.8206336h1.5364921c.7428341 0 .8191203-.076289.8191203-.8206336v-1.0313586-1.0313587c0-.74434206-.076289-.82063356-.8191203-.82063356z" fill="url(#c)"/><path d="m2.1167101.26457024v3.70398446h.7683915c.7428341 0 .8190304-.076236.8190304-.8205807v-1.0314115-1.0314116c0-.74434208-.076199-.82058066-.8190304-.82058066z" fill="#fff" opacity=".2"/><path d="m.5292882 2.1165625v1.0314115c-.003651.7443342.0761989.8205807.8190303.8205807h1.5367831c.7428341 0 .8190304-.076236.8190304-.8205807v-1.0314115z" fill="#fff" opacity=".2"/><path clip-path="url(#b)" d="m325.09646 237c-2.80769 0-3.10979.28839-3.09603 3.10176v3.89824 3.89824c-.0138 2.81337.28834 3.10176 3.09603 3.10176h5.8075c2.8077 0 3.09604-.28835 3.09604-3.10176v-3.89824-3.89824c0-2.8134-.28835-3.10176-3.09604-3.10176z" fill="none" opacity=".4" stroke="url(#a)" stroke-width="2" transform="matrix(.26457031 0 0 .26457031 -84.662352 -62.438595)"/></g><g fill="#808080" transform="matrix(.06830368 0 0 .06830368 -9.485463 -10.505755)"><path d="m225.512 288.535v-35.204l30.488-17.602 30.488 17.602v35.204l-30.488 17.603z"/><path d="m321.936 238.733-26.403 15.244-.402 33.603 26.561 15.835z"/><path d="m190.064 303.134 26.403-15.244.402-33.603-26.561-15.835z"/><path d="m250.919 344.136v-30.488l-28.9-17.149-26.994 15.085z"/><path d="m316.854 311.935-26.403-15.244-29.302 16.453-.433 30.92z"/><path d="m195.146 229.932 26.403 15.244 29.302-16.453.433-30.92z"/><path d="m261.081 197.731v30.488l28.9 17.149 26.994-15.085z"/></g></svg>

<?xml version="1.0" encoding="UTF-8" standalone="no"?>
<svg
   xmlns:dc="http://purl.org/dc/elements/1.1/"
   xmlns:cc="http://creativecommons.org/ns#"
   xmlns:rdf="http://www.w3.org/1999/02/22-rdf-syntax-ns#"
   xmlns:svg="http://www.w3.org/2000/svg"
   xmlns="http://www.w3.org/2000/svg"
   xmlns:xlink="http://www.w3.org/1999/xlink"
   xmlns:sodipodi="http://sodipodi.sourceforge.net/DTD/sodipodi-0.dtd"
   xmlns:inkscape="http://www.inkscape.org/namespaces/inkscape"
   width="16"
   height="16"
   version="1.1"
   id="svg18"
   sodipodi:docname="x-package-repository.svg"
   inkscape:version="0.92.4 (5da689c313, 2019-01-14)">
  <metadata
     id="metadata24">
    <rdf:RDF>
      <cc:Work
         rdf:about="">
        <dc:format>image/svg+xml</dc:format>
        <dc:type
           rdf:resource="http://purl.org/dc/dcmitype/StillImage" />
      </cc:Work>
    </rdf:RDF>
  </metadata>
  <defs
     id="defs22">
    <linearGradient
       gradientUnits="userSpaceOnUse"
       gradientTransform="matrix(0,-0.11988932,0.11988589,0,0.36277965,292.5483)"
       y2="119.093"
       y1="401.58401"
       x2="-35.310001"
       x1="529.65503"
       id="linearGradient4226">
      <stop
         id="stop2"
         offset="0"
         style="stop-color:#f2f2f2" />
      <stop
         id="stop4"
         offset="1"
         style="stop-color:#f9f9f9" />
    </linearGradient>
    <linearGradient
       gradientUnits="userSpaceOnUse"
       y2="488"
       y1="88"
       x2="488"
       x1="88"
       id="linearGradient4358">
      <stop
         id="stop7"
         offset="0"
         style="stop-color:#000000;stop-opacity:.58823532" />
      <stop
         id="stop9"
         offset=".88"
         style="stop-color:#000000;stop-opacity:0" />
      <stop
         id="stop11"
         offset="1"
         style="stop-color:#000000" />
    </linearGradient>
    <filter
       style="color-interpolation-filters:sRGB"
       y="-0.0099999998"
       x="-0.0099999998"
       height="1.022"
       width="1.026"
       id="filter4346">
      <feGaussianBlur
         id="feGaussianBlur14"
         stdDeviation="2.12" />
    </filter>
    <linearGradient
       gradientUnits="userSpaceOnUse"
       y2="251"
       x2="328"
       y1="237"
       x1="328"
       id="linearGradient993"
       xlink:href="#linearGradient927"
       inkscape:collect="always" />
    <linearGradient
       id="linearGradient927"
       inkscape:collect="always">
      <stop
         id="stop923"
         offset="0"
         style="stop-color:#ffffff;stop-opacity:1;" />
      <stop
         style="stop-color:#ffffff;stop-opacity:0.09803922"
         offset="0.125"
         id="stop933" />
      <stop
         style="stop-color:#ffffff;stop-opacity:0.09803922"
         offset="0.92500001"
         id="stop931" />
      <stop
         id="stop925"
         offset="1"
         style="stop-color:#ffffff;stop-opacity:0.49803922" />
    </linearGradient>
    <clipPath
       id="clipPath983"
       clipPathUnits="userSpaceOnUse">
      <path
         style="color:#000000;display:inline;overflow:visible;visibility:visible;opacity:1;fill:#46a926;fill-opacity:1;fill-rule:nonzero;stroke:none;stroke-width:2;stroke-miterlimit:4;stroke-dasharray:none;stroke-opacity:1;marker:none;enable-background:accumulate"
         d="m 325.09646,237 c -2.80769,0 -3.10979,0.28839 -3.09603,3.10176 V 244 v 3.89824 c -0.0138,2.81337 0.28834,3.10176 3.09603,3.10176 h 5.8075 C 333.71166,251 334,250.71165 334,247.89824 V 244 240.10176 C 334,237.28836 333.71165,237 330.90396,237 Z"
         id="path985"
         inkscape:connector-curvature="0"
         sodipodi:nodetypes="scccssscsss" />
    </clipPath>
    <linearGradient
       y2="207.36522"
       x2="35.310345"
       y1="419.23337"
       x1="459.03448"
       gradientTransform="matrix(0,-0.00953618,0.00953591,0,-0.9429847,4.4736432)"
       gradientUnits="userSpaceOnUse"
       id="linearGradient920"
       xlink:href="#linearGradient4338"
       inkscape:collect="always" />
    <linearGradient
       id="linearGradient4338"
       inkscape:collect="always">
      <stop
         id="stop4340"
         offset="0"
         style="stop-color:#f2f2f2;stop-opacity:1" />
      <stop
         id="stop4342"
         offset="1"
         style="stop-color:#f9f9f9;stop-opacity:1" />
    </linearGradient>
  </defs>
  <sodipodi:namedview
     pagecolor="#ffffff"
     bordercolor="#666666"
     borderopacity="1"
     objecttolerance="10"
     gridtolerance="10"
     guidetolerance="10"
     inkscape:pageopacity="0"
     inkscape:pageshadow="2"
     inkscape:window-width="1920"
     inkscape:window-height="1016"
     id="namedview20"
     showgrid="false"
     inkscape:zoom="14.75"
     inkscape:cx="8"
     inkscape:cy="8"
     inkscape:window-x="0"
     inkscape:window-y="27"
     inkscape:window-maximized="1"
     inkscape:current-layer="svg18" />
  <g
     id="g902"
     transform="scale(3.7797136)">
    <path
       sodipodi:nodetypes="scscccccccsscscscscscss"
       inkscape:connector-curvature="0"
       id="path997"
       d="m 1.3483185,0.26457024 c -0.1902366,0 -0.3444309,0.003678 -0.48573256,0.0273883 C 0.72128158,0.31569054 0.57994548,0.36505404 0.47192935,0.47281618 0.36391587,0.58057567 0.31409463,0.72236684 0.29055581,0.86398603 0.26700906,1.0056078 0.26378395,1.1604317 0.2647073,1.3512716 V 2.1165625 3.147974 c -7.9371e-4,0.1900038 0.002381,0.3445631 0.0258485,0.4857352 0.0235468,0.1416192 0.0733574,0.2834104 0.18137354,0.3911699 0.10801613,0.1077621 0.24935223,0.1571389 0.39065659,0.1808576 0.14130167,0.023732 0.29549597,0.027388 0.48573257,0.027388 h 1.5367831 c 0.1902367,0 0.3440949,-0.00362 0.4852167,-0.027388 C 3.5114428,4.1819783 3.6527948,4.1322073 3.7604564,4.0243631 3.868118,3.916519 3.9176217,3.7749501 3.941314,3.6337092 3.9650089,3.4924657 3.9687023,3.3385784 3.9687023,3.147974 V 2.1165625 1.3497212 c 0,-0.1906044 -0.0037,-0.3444917 -0.027388,-0.48573517 C 3.9176349,0.72274517 3.868118,0.58117624 3.7604564,0.47333209 3.6527948,0.36548794 3.5114428,0.31570639 3.3703183,0.29195856 3.2291965,0.26820806 3.0753383,0.26457026 2.8851016,0.26457026 Z"
       style="color:#000000;font-style:normal;font-variant:normal;font-weight:normal;font-stretch:normal;font-size:medium;line-height:normal;font-family:sans-serif;font-variant-ligatures:normal;font-variant-position:normal;font-variant-caps:normal;font-variant-numeric:normal;font-variant-alternates:normal;font-feature-settings:normal;text-indent:0;text-align:start;text-decoration:none;text-decoration-line:none;text-decoration-style:solid;text-decoration-color:#000000;letter-spacing:normal;word-spacing:normal;text-transform:none;writing-mode:lr-tb;direction:ltr;text-orientation:mixed;dominant-baseline:auto;baseline-shift:baseline;text-anchor:start;white-space:normal;shape-padding:0;clip-rule:nonzero;display:inline;overflow:visible;visibility:visible;opacity:0.1;isolation:auto;mix-blend-mode:normal;color-interpolation:sRGB;color-interpolation-filters:linearRGB;solid-color:#000000;solid-opacity:1;vector-effect:none;fill:#000000;fill-opacity:1;fill-rule:nonzero;stroke:none;stroke-width:0.52914065;stroke-linecap:butt;stroke-linejoin:miter;stroke-miterlimit:4;stroke-dasharray:none;stroke-dashoffset:0;stroke-opacity:1;marker:none;color-rendering:auto;image-rendering:auto;shape-rendering:auto;text-rendering:auto;enable-background:accumulate" />
    <path
       style="color:#000000;display:inline;overflow:visible;visibility:visible;opacity:0.2;fill:none;fill-opacity:1;fill-rule:nonzero;stroke:#000000;stroke-width:0.52914065;stroke-miterlimit:4;stroke-dasharray:none;stroke-opacity:1;marker:none;enable-background:accumulate"
       d="m 1.3485196,0.26457024 c -0.74283143,0 -0.82275813,0.0762994 -0.81911763,0.82063356 v 1.0313587 1.0313586 c -0.003651,0.7443342 0.0762862,0.8206336 0.81911763,0.8206336 h 1.5364921 c 0.7428341,0 0.8191203,-0.076289 0.8191203,-0.8206336 V 2.1165625 1.0852038 c 0,-0.74434206 -0.076289,-0.82063356 -0.8191203,-0.82063356 z"
       id="path928"
       inkscape:connector-curvature="0"
       sodipodi:nodetypes="scccssscsss" />
    <path
       sodipodi:nodetypes="scccssscsss"
       inkscape:connector-curvature="0"
       id="path918"
       d="m 1.3485196,0.26457024 c -0.74283143,0 -0.82275813,0.0762994 -0.81911763,0.82063356 v 1.0313587 1.0313586 c -0.003651,0.7443342 0.0762862,0.8206336 0.81911763,0.8206336 h 1.5364921 c 0.7428341,0 0.8191203,-0.076289 0.8191203,-0.8206336 V 2.1165625 1.0852038 c 0,-0.74434206 -0.076289,-0.82063356 -0.8191203,-0.82063356 z"
       style="color:#000000;display:inline;overflow:visible;visibility:visible;fill:url(#linearGradient920);fill-opacity:1;fill-rule:nonzero;stroke:none;stroke-width:0.26457033;marker:none;enable-background:accumulate" />
    <path
       inkscape:connector-curvature="0"
       id="path1009"
       d="M 2.1167101,0.26457024 V 3.9685547 h 0.7683915 c 0.7428341,0 0.8190304,-0.076236 0.8190304,-0.8205807 V 2.1165625 1.0851509 c 0,-0.74434208 -0.076199,-0.82058066 -0.8190304,-0.82058066 z"
       style="color:#000000;display:inline;overflow:visible;visibility:visible;opacity:0.2;fill:#ffffff;fill-opacity:1;fill-rule:nonzero;stroke:none;stroke-width:0.26457033;marker:none;enable-background:accumulate" />
    <path
       inkscape:connector-curvature="0"
       id="path1016"
       d="M 0.5292882,2.1165625 V 3.147974 c -0.003651,0.7443342 0.0761989,0.8205807 0.8190303,0.8205807 h 1.5367831 c 0.7428341,0 0.8190304,-0.076236 0.8190304,-0.8205807 V 2.1165625 Z"
       style="color:#000000;display:inline;overflow:visible;visibility:visible;opacity:0.2;fill:#ffffff;fill-opacity:1;fill-rule:nonzero;stroke:none;stroke-width:0.26457033;marker:none;enable-background:accumulate" />
    <path
       clip-path="url(#clipPath983)"
       sodipodi:nodetypes="scccssscsss"
       inkscape:connector-curvature="0"
       id="path937"
       d="m 325.09646,237 c -2.80769,0 -3.10979,0.28839 -3.09603,3.10176 V 244 v 3.89824 c -0.0138,2.81337 0.28834,3.10176 3.09603,3.10176 h 5.8075 C 333.71166,251 334,250.71165 334,247.89824 V 244 240.10176 C 334,237.28836 333.71165,237 330.90396,237 Z"
       style="color:#000000;display:inline;overflow:visible;visibility:visible;opacity:0.4;fill:none;fill-opacity:1;fill-rule:nonzero;stroke:url(#linearGradient993);stroke-width:2;stroke-miterlimit:4;stroke-dasharray:none;stroke-opacity:1;marker:none;enable-background:accumulate"
       transform="matrix(0.26457031,0,0,0.26457031,-84.662352,-62.438595)" />
  </g>
  <g
     transform="matrix(0.06830368,0,0,0.06830368,-9.485463,-10.505755)"
     style="fill:#808080"
     id="g16">
    <path
       d="M 225.512,288.535 V 253.331 L 256,235.729 l 30.488,17.602 v 35.204 L 256,306.138 Z"
       style="fill:#808080"
       id="path2"
       inkscape:connector-curvature="0" />
    <path
       d="m 321.936,238.733 -26.403,15.244 -0.402,33.603 26.561,15.835 z"
       style="fill:#808080"
       id="path4"
       inkscape:connector-curvature="0" />
    <path
       d="m 190.064,303.134 26.403,-15.244 0.402,-33.603 -26.561,-15.835 z"
       style="fill:#808080"
       id="path6"
       inkscape:connector-curvature="0" />
    <path
       d="m 250.919,344.136 v -30.488 l -28.9,-17.149 -26.994,15.085 z"
       style="fill:#808080"
       id="path8"
       inkscape:connector-curvature="0" />
    <path
       d="m 316.854,311.935 -26.403,-15.244 -29.302,16.453 -0.433,30.92 z"
       style="fill:#808080"
       id="path10"
       inkscape:connector-curvature="0" />
    <path
       d="m 195.146,229.932 26.403,15.244 29.302,-16.453 0.433,-30.92 z"
       style="fill:#808080"
       id="path12"
       inkscape:connector-curvature="0" />
    <path
       d="m 261.081,197.731 v 30.488 l 28.9,17.149 26.994,-15.085 z"
       style="fill:#808080"
       id="path14"
       inkscape:connector-curvature="0" />
  </g>
</svg>
